X: 42945
T: William Taylor's Table Top
R: hornpipe
M: 4/4
K: Aminor
|:(3E^F^G|A2 A2 A>Bc>A|B>cB>A ^G2 E2|e2 e2 d2- d>c|B>A^G>A (3Bcd c>B|
A2 A2- A>B (3cBA|B>c (3BA^G E4|e>dc>B A>c (3BA^G|A2 A2 A2:|
|:c>d|e>cA>c e2 e2|d>B^G>B d2 d2|c>BA>^G A2- A>c|B>A^G>A B>cd>f|
e2 A>c e>c (3edc|d2 ^G>B d>B (3dcB|c>BA>^G (3ABc B>G|A2 ^G2 A2:|

